X: 11533
Q: "Moderate."
M: 3/4
L: 1/8
K: Gm
d2 |\
g3G B2 | G4 d2 | e3e d2 | e4 (de) |\
f3A B2 | A4 (f/B/)A | B3A cB/c/ | d4 a2 |\
b3a (g^f) | g4 (g/a/b) | d3c (B/c/d) | c4f2 |\
e2d2 g2 | c2c2 (ed) |
c3B A2 | B4 (ba) |\
b2^f2 g2 | e4 d2 | e3d c2 | f4 ^f>f |\
g4 a>d | b4 a2 | ^f3=e f2 | g4 b2 |\
g2g2 e2 | c2c2 d2 | B2 A3d | A2 A3G |\


